X:1
T:Commonwealth, 76.76.88.84
T:Josiah Booth, 1888
T:Commonwealth, 76.76.88.84
T:Public Domain
C:Josiah Booth, 1888
Z:Public Domain
%%score ( 1 2 ) ( 3 4 )
L:1/8
M:4/4
K:G
V:1 treble 
V:2 treble 
V:3 bass 
V:4 bass 
V:1
 E2 EE [EG]3 [EG] x | [FB]4 [EG]2 (EF) | G2 (EF) G2 E2 | B,6 B,2 | [B,E]2 [B,E]2 [EG]3 [EG] | %5
 [Gc]4 [GB]2 (GA) | B2 (EF) G2 [CF]2 | [B,^D]8 |[K:E] E2 E[EF] [EA]2 [EG]2 | [EF]2 [Dc]2 [EB]4 | %10
 [FB]2 [FB][FA] [EG]2 [DF]2 | [CE]2 [CF]2 [B,D]2 [B,D]2 | [B,E]2 [B,F]2 [B,G]2 [EG]2 | %13
 [EA]2 [EB]2 ([Ec]2 [Fd]2) | [Ee]4 [Ec]2 [FA]2 | (E2 D2) E4 |] %16
V:2
 E2 EE x5 | x8 | G2 G2 E2 x2 | B,6 B,2 | x8 | x8 | B2 G2 x4 | x8 |[K:E] E2 E x5 | x8 | x8 | x8 | %12
 x8 | x8 | x8 | F4 E4 |] %16
V:3
 [E,G,]2 [E,G,][E,G,] E,2 z B, x | [^D,B,]4 [E,B,]2 (E,F,) | G,2 (E,F,) G,2 E,2 | [B,,B,]6 B,2 | %4
 [G,B,]2 [G,B,]2 [E,B,]2 [E,B,]2 | [C,E]4 [G,D]2 (G,A,) | B,2 (E,F,) G,2 [A,,A,]2 | [B,,F,]8 | %8
[K:E] [E,G,]2 [E,G,][E,A,] [E,C]2 [E,B,]2 | [E,A,]2 [E,A,]2 [E,G,]4 | %10
 [D,B,]2 [D,B,][D,B,] [E,B,]2 [B,,A,]2 | [C,G,]2 [A,,A,]2 [B,,F,]2 [B,,A,]2 | %12
 [C,G,]2 [D,F,]2 E,2 [E,=D]2 | [F,C]2 [G,B,]2 (E2 B,2) | B,2 ^B,2 [A,C]2 [A,,C]2 | %15
 [B,,A,]4 [E,G,]4 |] %16
V:4
 x4 B,3 E,2 | x8 | G,2 G,2 E,2 x2 | x6 B,2 | x8 | x8 | B,2 G,2 x4 | x8 |[K:E] x8 | x8 | x8 | x8 | %12
 x4 E,2 x2 | x4 A,4 | G,4 x4 | x8 |] %16

